X:102
T: GRAD AUS DEM WIRTSHAUS NUN
N: F0214
O: Europa, Mitteleuropa, Deutschland
R: Trink - Lied
M: 3/8
L: 1/16
K: C
 | G,A,B,CDE | F2D2B,2
G,2A,2G,2 | E6
A,B,^CDEF | G2E2^C2
A,2_B,2A,2 | F6
E3FE2 | D2A,2A,2
E3FE2 | D6
C2B,2A,2 | G,2C2E2
F2A,2B,2 | C6

